X:169
T:Maggie In The Woods
R:polka
M:2/4
L:1/8
K:Gmaj
B/A/|GD GA|Be e/f/g/e/|dB B/A/G/A/|BA A/c/B/A/|
GD GA|Be e/f/g/e/| dB AB/A/|G2 G:|
d|g>f ed|ef g>e| dB B/A/G/A/|BA A>d|
g>f ed|ef g>e|dB AB|G2 G2:|

